the-plus-addons-for-block-editor/assets/images/coupon-code/code-4.svg

<svg xmlns="http://www.w3.org/2000/svg" width="1000" height="700" fill="none" viewBox="0 0 1000 700"><path fill="#FCFCFF" d="M0 0h1000v700H0z"/><rect width="472" height="104" x="240" y="298" fill="#F2F2F2" rx="7.429"/><g stroke="#E8E8E8" stroke-width="1.486" clip-path="url(#a)"><path d="M406.448 431.217 598.106 218.76M555.02 431.217 746.677 218.76M480.734 431.217 672.391 218.76M629.306 431.217 820.963 218.76M443.591 431.217 635.248 218.76M592.163 431.217 783.82 218.76M517.877 431.217 709.534 218.76M666.448 431.217 858.106 218.76M413.877 431.217 605.534 218.76M562.448 431.217 754.106 218.76M488.163 431.217 679.82 218.76M636.734 431.217 828.391 218.76M451.02 431.217 642.677 218.76M599.591 431.217 791.248 218.76M525.306 431.217 716.963 218.76M673.877 431.217 865.534 218.76M421.306 431.217 612.963 218.76M569.877 431.217 761.534 218.76M495.591 431.217 687.248 218.76M644.163 431.217 835.82 218.76M458.448 431.217 650.106 218.76M607.02 431.217 798.677 218.76M532.734 431.217 724.391 218.76M681.306 431.217 872.963 218.76M428.734 431.217 620.391 218.76M577.306 431.217 768.963 218.76M503.02 431.217 694.677 218.76M651.591 431.217 843.248 218.76M465.877 431.217 657.534 218.76M614.448 431.217 806.106 218.76M540.163 431.217 731.82 218.76M688.734 431.217 880.391 218.76M436.163 431.217 627.82 218.76M584.734 431.217 776.391 218.76M510.448 431.217 702.106 218.76M659.02 431.217 850.677 218.76M473.306 431.217 664.963 218.76M621.877 431.217 813.534 218.76M547.591 431.217 739.248 218.76M696.163 431.217 887.82 218.76M696.163 438.645 887.82 226.188M702.106 438.645l191.657-212.457"/></g><mask id="b" width="472" height="104" x="240" y="298" maskUnits="userSpaceOnUse" style="mask-type:alpha"><rect width="472" height="104" x="240" y="298" fill="#8072FC" rx="7.429"/></mask><g mask="url(#b)"><path fill="#13234A" d="M559.985 365.295c-1.966 0-3.736-.337-5.309-1.011-1.574-.703-2.81-1.686-3.709-2.95-.899-1.264-1.348-2.739-1.348-4.425h5.141c.112 1.264.604 2.304 1.475 3.118.899.815 2.149 1.223 3.75 1.223 1.658 0 2.95-.394 3.877-1.18.927-.815 1.391-1.855 1.391-3.119 0-.983-.295-1.784-.885-2.402-.562-.618-1.278-1.095-2.149-1.432-.843-.338-2.023-.703-3.54-1.096-1.91-.506-3.47-1.011-4.678-1.517-1.179-.534-2.191-1.349-3.034-2.444-.842-1.096-1.264-2.557-1.264-4.383 0-1.685.422-3.16 1.264-4.425.843-1.264 2.023-2.233 3.54-2.907 1.517-.674 3.273-1.012 5.268-1.012 2.837 0 5.155.717 6.953 2.15 1.826 1.404 2.837 3.343 3.034 5.815h-5.31c-.084-1.068-.59-1.981-1.517-2.739-.927-.759-2.149-1.138-3.666-1.138-1.377 0-2.5.351-3.371 1.054-.871.702-1.307 1.713-1.307 3.034 0 .899.267 1.643.801 2.233.562.562 1.264 1.011 2.107 1.348.843.338 1.995.703 3.456 1.096 1.938.534 3.511 1.068 4.719 1.601 1.236.534 2.276 1.363 3.119 2.487.871 1.095 1.306 2.57 1.306 4.424 0 1.489-.407 2.894-1.222 4.214-.787 1.321-1.953 2.388-3.498 3.203-1.517.787-3.315 1.18-5.394 1.18Zm20.586-4.172h9.903V365h-14.707v-29.287h4.804v25.41Zm33.094-22.713h-14.116v8.386c.59-.787 1.46-1.447 2.612-1.981a8.992 8.992 0 0 1 3.751-.801c2.36 0 4.27.506 5.731 1.517 1.489 1.012 2.542 2.29 3.16 3.835.646 1.545.969 3.175.969 4.888 0 2.079-.407 3.933-1.222 5.563-.786 1.601-1.98 2.865-3.581 3.792-1.574.927-3.512 1.391-5.816 1.391-3.062 0-5.52-.759-7.374-2.276s-2.964-3.525-3.329-6.026h4.677c.309 1.321.997 2.374 2.065 3.161 1.068.758 2.402 1.138 4.003 1.138 1.995 0 3.484-.604 4.467-1.812 1.012-1.208 1.517-2.81 1.517-4.804 0-2.023-.505-3.568-1.517-4.636-1.011-1.095-2.5-1.643-4.467-1.643-1.376 0-2.542.351-3.497 1.053-.927.675-1.602 1.602-2.023 2.782h-4.551v-17.741h18.541v4.214Zm26.577-.422L628.527 365h-4.846l11.841-26.506h-15.591v-4.088h20.311v3.582Z"/><path fill="#D5D5D5" d="M240 298h524v104H240z"/><path fill="#888" d="M226 298h146v104H226zM418.879 365.295c-1.967 0-3.737-.337-5.31-1.011-1.574-.703-2.81-1.686-3.709-2.95-.899-1.265-1.349-2.74-1.349-4.425h5.142c.112 1.264.604 2.303 1.475 3.118.899.815 2.149 1.222 3.751 1.222 1.657 0 2.95-.393 3.877-1.18.927-.814 1.39-1.854 1.39-3.118 0-.984-.295-1.784-.885-2.402-.562-.619-1.278-1.096-2.149-1.433-.843-.337-2.023-.703-3.54-1.096-1.91-.506-3.47-1.011-4.678-1.517-1.18-.534-2.191-1.349-3.034-2.444-.843-1.096-1.264-2.557-1.264-4.383 0-1.686.421-3.161 1.264-4.425.843-1.265 2.023-2.234 3.54-2.908 1.517-.674 3.273-1.012 5.268-1.012 2.837 0 5.155.717 6.953 2.15 1.827 1.404 2.838 3.343 3.035 5.815h-5.31c-.085-1.067-.59-1.98-1.517-2.739-.928-.758-2.15-1.138-3.667-1.138-1.377 0-2.5.351-3.371 1.054-.871.702-1.307 1.714-1.307 3.034 0 .899.267 1.644.801 2.234.562.562 1.264 1.011 2.107 1.348.843.337 1.995.703 3.456 1.096 1.938.534 3.512 1.068 4.72 1.601 1.236.534 2.276 1.363 3.118 2.487.871 1.096 1.307 2.571 1.307 4.425 0 1.489-.408 2.894-1.222 4.214-.787 1.321-1.953 2.388-3.498 3.203-1.517.787-3.315 1.18-5.394 1.18Zm39.172-29.584V365h-4.804v-12.811h-13.781V365h-4.804v-29.289h4.804v12.558h13.781v-12.558h4.804Zm19.684 29.584c-2.725 0-5.24-.632-7.544-1.896-2.275-1.293-4.087-3.077-5.436-5.353-1.32-2.303-1.981-4.888-1.981-7.754 0-2.866.661-5.436 1.981-7.712 1.349-2.276 3.161-4.046 5.436-5.31 2.304-1.292 4.819-1.939 7.544-1.939 2.753 0 5.268.647 7.544 1.939a13.908 13.908 0 0 1 5.436 5.31c1.32 2.276 1.981 4.846 1.981 7.712 0 2.866-.661 5.451-1.981 7.754a14.217 14.217 0 0 1-5.436 5.353c-2.276 1.264-4.791 1.896-7.544 1.896Zm0-4.172c1.939 0 3.666-.436 5.184-1.307 1.517-.899 2.697-2.163 3.54-3.792.871-1.658 1.306-3.569 1.306-5.732 0-2.163-.435-4.06-1.306-5.689-.843-1.63-2.023-2.88-3.54-3.751-1.518-.871-3.245-1.306-5.184-1.306s-3.666.435-5.184 1.306c-1.517.871-2.711 2.121-3.582 3.751-.843 1.629-1.264 3.526-1.264 5.689 0 2.163.421 4.074 1.264 5.732.871 1.629 2.065 2.893 3.582 3.792 1.518.871 3.245 1.307 5.184 1.307Zm57.828-25.412L526.881 365h-5.436l-6.153-22.167L508.76 365l-5.395.042-8.302-29.331h5.1l6.068 23.853 6.574-23.853h5.395l6.11 23.726 6.111-23.726h5.142Zm13.308 14.581c0-2.866.66-5.436 1.981-7.712 1.348-2.276 3.16-4.046 5.436-5.31 2.304-1.292 4.818-1.939 7.544-1.939 3.118 0 5.885.773 8.302 2.318 2.444 1.517 4.214 3.681 5.31 6.49h-5.774c-.758-1.545-1.812-2.697-3.161-3.455-1.348-.759-2.907-1.138-4.677-1.138-1.939 0-3.667.435-5.184 1.306-1.517.871-2.711 2.121-3.582 3.751-.843 1.629-1.264 3.526-1.264 5.689 0 2.163.421 4.06 1.264 5.689.871 1.63 2.065 2.894 3.582 3.793 1.517.871 3.245 1.307 5.184 1.307 1.77 0 3.329-.38 4.677-1.138 1.349-.759 2.403-1.911 3.161-3.456h5.774c-1.096 2.81-2.866 4.973-5.31 6.49-2.417 1.517-5.184 2.276-8.302 2.276-2.754 0-5.268-.632-7.544-1.897-2.276-1.292-4.088-3.076-5.436-5.352-1.321-2.275-1.981-4.846-1.981-7.712Zm47.555 15.003c-2.725 0-5.239-.632-7.543-1.896-2.276-1.293-4.088-3.077-5.437-5.353-1.32-2.303-1.98-4.888-1.98-7.754 0-2.866.66-5.436 1.98-7.712 1.349-2.276 3.161-4.046 5.437-5.31 2.304-1.292 4.818-1.939 7.543-1.939 2.754 0 5.268.647 7.544 1.939a13.902 13.902 0 0 1 5.436 5.31c1.321 2.276 1.981 4.846 1.981 7.712 0 2.866-.66 5.451-1.981 7.754a14.21 14.21 0 0 1-5.436 5.353c-2.276 1.264-4.79 1.896-7.544 1.896Zm0-4.172c1.939 0 3.667-.436 5.184-1.307 1.517-.899 2.697-2.163 3.54-3.792.871-1.658 1.306-3.569 1.306-5.732 0-2.163-.435-4.06-1.306-5.689-.843-1.63-2.023-2.88-3.54-3.751s-3.245-1.306-5.184-1.306c-1.938 0-3.666.435-5.183 1.306s-2.711 2.121-3.582 3.751c-.843 1.629-1.265 3.526-1.265 5.689 0 2.163.422 4.074 1.265 5.732.871 1.629 2.065 2.893 3.582 3.792 1.517.871 3.245 1.307 5.183 1.307Zm29.255-25.412c3.119 0 5.844.604 8.176 1.812 2.36 1.18 4.172 2.894 5.436 5.141 1.293 2.22 1.939 4.819 1.939 7.797 0 2.978-.646 5.563-1.939 7.754-1.264 2.191-3.076 3.877-5.436 5.057-2.332 1.152-5.057 1.728-8.176 1.728h-9.566v-29.289h9.566Zm0 25.37c3.428 0 6.055-.927 7.881-2.782 1.826-1.854 2.739-4.467 2.739-7.838 0-3.4-.913-6.055-2.739-7.965-1.826-1.911-4.453-2.866-7.881-2.866h-4.762v21.451h4.762Zm25.117-21.493v8.597h10.114v3.919h-10.114v8.977h11.378V365h-16.183v-29.331h16.183v3.919h-11.378Z"/></g><defs><clipPath id="a"><rect width="305" height="104" x="407" y="298" fill="#fff" rx="7.429"/></clipPath></defs></svg>

<svg width="1000" height="700" viewBox="0 0 1000 700" fill="none" xmlns="http://www.w3.org/2000/svg">
<rect width="1000" height="700" fill="#FCFCFF"/>
<rect x="240" y="298" width="472" height="104" rx="7.42857" fill="#F2F2F2"/>
<g clip-path="url(#clip0_5_973)">
<line x1="406.448" y1="431.217" x2="598.106" y2="218.76" stroke="#E8E8E8" stroke-width="1.48571"/>
<line x1="555.02" y1="431.217" x2="746.677" y2="218.76" stroke="#E8E8E8" stroke-width="1.48571"/>
<line x1="480.734" y1="431.217" x2="672.391" y2="218.76" stroke="#E8E8E8" stroke-width="1.48571"/>
<line x1="629.306" y1="431.217" x2="820.963" y2="218.76" stroke="#E8E8E8" stroke-width="1.48571"/>
<line x1="443.591" y1="431.217" x2="635.248" y2="218.76" stroke="#E8E8E8" stroke-width="1.48571"/>
<line x1="592.163" y1="431.217" x2="783.82" y2="218.76" stroke="#E8E8E8" stroke-width="1.48571"/>
<line x1="517.877" y1="431.217" x2="709.534" y2="218.76" stroke="#E8E8E8" stroke-width="1.48571"/>
<line x1="666.448" y1="431.217" x2="858.106" y2="218.76" stroke="#E8E8E8" stroke-width="1.48571"/>
<line x1="413.877" y1="431.217" x2="605.534" y2="218.76" stroke="#E8E8E8" stroke-width="1.48571"/>
<line x1="562.448" y1="431.217" x2="754.106" y2="218.76" stroke="#E8E8E8" stroke-width="1.48571"/>
<line x1="488.163" y1="431.217" x2="679.82" y2="218.76" stroke="#E8E8E8" stroke-width="1.48571"/>
<line x1="636.734" y1="431.217" x2="828.391" y2="218.76" stroke="#E8E8E8" stroke-width="1.48571"/>
<line x1="451.02" y1="431.217" x2="642.677" y2="218.76" stroke="#E8E8E8" stroke-width="1.48571"/>
<line x1="599.591" y1="431.217" x2="791.248" y2="218.76" stroke="#E8E8E8" stroke-width="1.48571"/>
<line x1="525.306" y1="431.217" x2="716.963" y2="218.76" stroke="#E8E8E8" stroke-width="1.48571"/>
<line x1="673.877" y1="431.217" x2="865.534" y2="218.76" stroke="#E8E8E8" stroke-width="1.48571"/>
<line x1="421.306" y1="431.217" x2="612.963" y2="218.76" stroke="#E8E8E8" stroke-width="1.48571"/>
<line x1="569.877" y1="431.217" x2="761.534" y2="218.76" stroke="#E8E8E8" stroke-width="1.48571"/>
<line x1="495.591" y1="431.217" x2="687.248" y2="218.76" stroke="#E8E8E8" stroke-width="1.48571"/>
<line x1="644.163" y1="431.217" x2="835.82" y2="218.76" stroke="#E8E8E8" stroke-width="1.48571"/>
<line x1="458.448" y1="431.217" x2="650.106" y2="218.76" stroke="#E8E8E8" stroke-width="1.48571"/>
<line x1="607.02" y1="431.217" x2="798.677" y2="218.76" stroke="#E8E8E8" stroke-width="1.48571"/>
<line x1="532.734" y1="431.217" x2="724.391" y2="218.76" stroke="#E8E8E8" stroke-width="1.48571"/>
<line x1="681.306" y1="431.217" x2="872.963" y2="218.76" stroke="#E8E8E8" stroke-width="1.48571"/>
<line x1="428.734" y1="431.217" x2="620.391" y2="218.76" stroke="#E8E8E8" stroke-width="1.48571"/>
<line x1="577.306" y1="431.217" x2="768.963" y2="218.76" stroke="#E8E8E8" stroke-width="1.48571"/>
<line x1="503.02" y1="431.217" x2="694.677" y2="218.76" stroke="#E8E8E8" stroke-width="1.48571"/>
<line x1="651.591" y1="431.217" x2="843.248" y2="218.76" stroke="#E8E8E8" stroke-width="1.48571"/>
<line x1="465.877" y1="431.217" x2="657.534" y2="218.76" stroke="#E8E8E8" stroke-width="1.48571"/>
<line x1="614.448" y1="431.217" x2="806.106" y2="218.76" stroke="#E8E8E8" stroke-width="1.48571"/>
<line x1="540.163" y1="431.217" x2="731.82" y2="218.76" stroke="#E8E8E8" stroke-width="1.48571"/>
<line x1="688.734" y1="431.217" x2="880.391" y2="218.76" stroke="#E8E8E8" stroke-width="1.48571"/>
<line x1="436.163" y1="431.217" x2="627.82" y2="218.76" stroke="#E8E8E8" stroke-width="1.48571"/>
<line x1="584.734" y1="431.217" x2="776.391" y2="218.76" stroke="#E8E8E8" stroke-width="1.48571"/>
<line x1="510.448" y1="431.217" x2="702.106" y2="218.76" stroke="#E8E8E8" stroke-width="1.48571"/>
<line x1="659.02" y1="431.217" x2="850.677" y2="218.76" stroke="#E8E8E8" stroke-width="1.48571"/>
<line x1="473.306" y1="431.217" x2="664.963" y2="218.76" stroke="#E8E8E8" stroke-width="1.48571"/>
<line x1="621.877" y1="431.217" x2="813.534" y2="218.76" stroke="#E8E8E8" stroke-width="1.48571"/>
<line x1="547.591" y1="431.217" x2="739.248" y2="218.76" stroke="#E8E8E8" stroke-width="1.48571"/>
<line x1="696.163" y1="431.217" x2="887.82" y2="218.76" stroke="#E8E8E8" stroke-width="1.48571"/>
<line x1="696.163" y1="438.645" x2="887.82" y2="226.188" stroke="#E8E8E8" stroke-width="1.48571"/>
<line x1="702.106" y1="438.645" x2="893.763" y2="226.188" stroke="#E8E8E8" stroke-width="1.48571"/>
</g>
<mask id="mask0_5_973" style="mask-type:alpha" maskUnits="userSpaceOnUse" x="240" y="298" width="472" height="104">
<rect x="240" y="298" width="472" height="104" rx="7.42857" fill="#8072FC"/>
</mask>
<g mask="url(#mask0_5_973)">
<path d="M559.985 365.295C558.019 365.295 556.249 364.958 554.676 364.284C553.102 363.581 551.866 362.598 550.967 361.334C550.068 360.07 549.619 358.595 549.619 356.909H554.76C554.872 358.173 555.364 359.213 556.235 360.027C557.134 360.842 558.384 361.25 559.985 361.25C561.643 361.25 562.935 360.856 563.862 360.07C564.789 359.255 565.253 358.215 565.253 356.951C565.253 355.968 564.958 355.167 564.368 354.549C563.806 353.931 563.09 353.454 562.219 353.117C561.376 352.779 560.196 352.414 558.679 352.021C556.769 351.515 555.209 351.01 554.001 350.504C552.822 349.97 551.81 349.155 550.967 348.06C550.125 346.964 549.703 345.503 549.703 343.677C549.703 341.992 550.125 340.517 550.967 339.252C551.81 337.988 552.99 337.019 554.507 336.345C556.024 335.671 557.78 335.333 559.775 335.333C562.612 335.333 564.93 336.05 566.728 337.483C568.554 338.887 569.565 340.826 569.762 343.298H564.452C564.368 342.23 563.862 341.317 562.935 340.559C562.008 339.8 560.786 339.421 559.269 339.421C557.892 339.421 556.769 339.772 555.898 340.475C555.027 341.177 554.591 342.188 554.591 343.509C554.591 344.408 554.858 345.152 555.392 345.742C555.954 346.304 556.656 346.753 557.499 347.09C558.342 347.428 559.494 347.793 560.955 348.186C562.893 348.72 564.466 349.254 565.674 349.787C566.91 350.321 567.95 351.15 568.793 352.274C569.664 353.369 570.099 354.844 570.099 356.698C570.099 358.187 569.692 359.592 568.877 360.912C568.09 362.233 566.924 363.3 565.379 364.115C563.862 364.902 562.064 365.295 559.985 365.295ZM580.571 361.123H590.474V365H575.767V335.713H580.571V361.123ZM613.665 338.41H599.549V346.796C600.139 346.009 601.009 345.349 602.161 344.815C603.341 344.281 604.591 344.014 605.912 344.014C608.272 344.014 610.182 344.52 611.643 345.531C613.132 346.543 614.185 347.821 614.803 349.366C615.449 350.911 615.772 352.541 615.772 354.254C615.772 356.333 615.365 358.187 614.55 359.817C613.764 361.418 612.57 362.682 610.969 363.609C609.395 364.536 607.457 365 605.153 365C602.091 365 599.633 364.241 597.779 362.724C595.925 361.207 594.815 359.199 594.45 356.698H599.127C599.436 358.019 600.124 359.072 601.192 359.859C602.26 360.617 603.594 360.997 605.195 360.997C607.19 360.997 608.679 360.393 609.662 359.185C610.674 357.977 611.179 356.375 611.179 354.381C611.179 352.358 610.674 350.813 609.662 349.745C608.651 348.65 607.162 348.102 605.195 348.102C603.819 348.102 602.653 348.453 601.698 349.155C600.771 349.83 600.096 350.757 599.675 351.937H595.124V334.196H613.665V338.41ZM640.242 337.988L628.527 365H623.681L635.522 338.494H619.931V334.406H640.242V337.988Z" fill="#13234A"/>
<rect x="240" y="298" width="524" height="104" fill="#D5D5D5"/>
<rect x="226" y="298" width="146" height="104" fill="#888888"/>
<path d="M418.879 365.295C416.912 365.295 415.142 364.958 413.569 364.284C411.995 363.581 410.759 362.598 409.86 361.334C408.961 360.069 408.511 358.594 408.511 356.909H413.653C413.765 358.173 414.257 359.212 415.128 360.027C416.027 360.842 417.277 361.249 418.879 361.249C420.536 361.249 421.829 360.856 422.756 360.069C423.683 359.255 424.146 358.215 424.146 356.951C424.146 355.967 423.851 355.167 423.261 354.549C422.699 353.93 421.983 353.453 421.112 353.116C420.269 352.779 419.089 352.413 417.572 352.02C415.662 351.514 414.102 351.009 412.894 350.503C411.714 349.969 410.703 349.154 409.86 348.059C409.017 346.963 408.596 345.502 408.596 343.676C408.596 341.99 409.017 340.515 409.86 339.251C410.703 337.986 411.883 337.017 413.4 336.343C414.917 335.669 416.673 335.331 418.668 335.331C421.505 335.331 423.823 336.048 425.621 337.481C427.448 338.885 428.459 340.824 428.656 343.296H423.346C423.261 342.229 422.756 341.316 421.829 340.557C420.901 339.799 419.679 339.419 418.162 339.419C416.785 339.419 415.662 339.77 414.791 340.473C413.92 341.175 413.484 342.187 413.484 343.507C413.484 344.406 413.751 345.151 414.285 345.741C414.847 346.303 415.549 346.752 416.392 347.089C417.235 347.426 418.387 347.792 419.848 348.185C421.786 348.719 423.36 349.253 424.568 349.786C425.804 350.32 426.844 351.149 427.686 352.273C428.557 353.369 428.993 354.844 428.993 356.698C428.993 358.187 428.585 359.592 427.771 360.912C426.984 362.233 425.818 363.3 424.273 364.115C422.756 364.902 420.958 365.295 418.879 365.295ZM458.051 335.711V365H453.247V352.189H439.466V365H434.662V335.711H439.466V348.269H453.247V335.711H458.051ZM477.735 365.295C475.01 365.295 472.495 364.663 470.191 363.399C467.916 362.106 466.104 360.322 464.755 358.046C463.435 355.743 462.774 353.158 462.774 350.292C462.774 347.426 463.435 344.856 464.755 342.58C466.104 340.304 467.916 338.534 470.191 337.27C472.495 335.978 475.01 335.331 477.735 335.331C480.488 335.331 483.003 335.978 485.279 337.27C487.582 338.534 489.395 340.304 490.715 342.58C492.035 344.856 492.696 347.426 492.696 350.292C492.696 353.158 492.035 355.743 490.715 358.046C489.395 360.322 487.582 362.106 485.279 363.399C483.003 364.663 480.488 365.295 477.735 365.295ZM477.735 361.123C479.674 361.123 481.401 360.687 482.919 359.816C484.436 358.917 485.616 357.653 486.459 356.024C487.33 354.366 487.765 352.455 487.765 350.292C487.765 348.129 487.33 346.232 486.459 344.603C485.616 342.973 484.436 341.723 482.919 340.852C481.401 339.981 479.674 339.546 477.735 339.546C475.796 339.546 474.069 339.981 472.551 340.852C471.034 341.723 469.84 342.973 468.969 344.603C468.126 346.232 467.705 348.129 467.705 350.292C467.705 352.455 468.126 354.366 468.969 356.024C469.84 357.653 471.034 358.917 472.551 359.816C474.069 360.687 475.796 361.123 477.735 361.123ZM535.563 335.711L526.881 365H521.445L515.292 342.833L508.76 365L503.365 365.042L495.063 335.711H500.163L506.231 359.564L512.805 335.711H518.2L524.31 359.437L530.421 335.711H535.563ZM548.871 350.292C548.871 347.426 549.531 344.856 550.852 342.58C552.2 340.304 554.012 338.534 556.288 337.27C558.592 335.978 561.106 335.331 563.832 335.331C566.95 335.331 569.717 336.104 572.134 337.649C574.578 339.166 576.348 341.33 577.444 344.139H571.67C570.912 342.594 569.858 341.442 568.509 340.684C567.161 339.925 565.602 339.546 563.832 339.546C561.893 339.546 560.165 339.981 558.648 340.852C557.131 341.723 555.937 342.973 555.066 344.603C554.223 346.232 553.802 348.129 553.802 350.292C553.802 352.455 554.223 354.352 555.066 355.981C555.937 357.611 557.131 358.875 558.648 359.774C560.165 360.645 561.893 361.081 563.832 361.081C565.602 361.081 567.161 360.701 568.509 359.943C569.858 359.184 570.912 358.032 571.67 356.487H577.444C576.348 359.297 574.578 361.46 572.134 362.977C569.717 364.494 566.95 365.253 563.832 365.253C561.078 365.253 558.564 364.621 556.288 363.356C554.012 362.064 552.2 360.28 550.852 358.004C549.531 355.729 548.871 353.158 548.871 350.292ZM596.426 365.295C593.701 365.295 591.187 364.663 588.883 363.399C586.607 362.106 584.795 360.322 583.446 358.046C582.126 355.743 581.466 353.158 581.466 350.292C581.466 347.426 582.126 344.856 583.446 342.58C584.795 340.304 586.607 338.534 588.883 337.27C591.187 335.978 593.701 335.331 596.426 335.331C599.18 335.331 601.694 335.978 603.97 337.27C606.274 338.534 608.086 340.304 609.406 342.58C610.727 344.856 611.387 347.426 611.387 350.292C611.387 353.158 610.727 355.743 609.406 358.046C608.086 360.322 606.274 362.106 603.97 363.399C601.694 364.663 599.18 365.295 596.426 365.295ZM596.426 361.123C598.365 361.123 600.093 360.687 601.61 359.816C603.127 358.917 604.307 357.653 605.15 356.024C606.021 354.366 606.456 352.455 606.456 350.292C606.456 348.129 606.021 346.232 605.15 344.603C604.307 342.973 603.127 341.723 601.61 340.852C600.093 339.981 598.365 339.546 596.426 339.546C594.488 339.546 592.76 339.981 591.243 340.852C589.726 341.723 588.532 342.973 587.661 344.603C586.818 346.232 586.396 348.129 586.396 350.292C586.396 352.455 586.818 354.366 587.661 356.024C588.532 357.653 589.726 358.917 591.243 359.816C592.76 360.687 594.488 361.123 596.426 361.123ZM625.681 335.711C628.8 335.711 631.525 336.315 633.857 337.523C636.217 338.703 638.029 340.417 639.293 342.664C640.586 344.884 641.232 347.483 641.232 350.461C641.232 353.439 640.586 356.024 639.293 358.215C638.029 360.406 636.217 362.092 633.857 363.272C631.525 364.424 628.8 365 625.681 365H616.115V335.711H625.681ZM625.681 361.081C629.109 361.081 631.736 360.154 633.562 358.299C635.388 356.445 636.301 353.832 636.301 350.461C636.301 347.061 635.388 344.406 633.562 342.496C631.736 340.585 629.109 339.63 625.681 339.63H620.919V361.081H625.681ZM650.798 339.588V348.185H660.912V352.104H650.798V361.081H662.176V365H645.993V335.669H662.176V339.588H650.798Z" fill="#888888"/>
</g>
<defs>
<clipPath id="clip0_5_973">
<rect x="407" y="298" width="305" height="104" rx="7.42857" fill="white"/>
</clipPath>
</defs>
</svg>
